; generated by PrusaSlicer 2.4.2+win64 on 2022-07-06 at 16:03:52 UTC


;
;
; 

; external perimeters extrusion width = 0.60mm
; perimeters extrusion width = 0.50mm
; infill extrusion width = 0.50mm
; solid infill extrusion width = 0.50mm
; top infill extrusion width = 0.45mm
; first layer extrusion width = 0.42mm

M73 P0 R15
M73 Q0 S15
M201 X1000 Y1000 Z200 E5000 ; sets maximum accelerations, mm/sec^2
M203 X200 Y200 Z12 E120 ; sets maximum feedrates, mm / sec
M204 P1250 R1250 T1250 ; sets acceleration (P, T) and retract acceleration (R), mm/sec^2
M205 X8.00 Y8.00 Z0.40 E4.50 ; sets the jerk limits, mm/sec
M205 S0 T0 ; sets the minimum extruding and travel feed rate, mm/sec
M107
;TYPE:Custom
M862.3 P "MK3" ; printer model check
M862.1 P0.4 ; nozzle diameter check
M115 U3.11.0 ; tell printer latest fw version
G90 ; use absolute coordinates
M83 ; extruder relative mode
M104 S215 ; set extruder temp
M140 S60 ; set bed temp
M190 S60 ; wait for bed temp
M109 S215 ; wait for extruder temp
G28 W ; home all without mesh bed level
G80 ; mesh bed leveling
G1 Z0.2 F720
G1 Y-3 F1000 ; go outside print area
G92 E0
G1 X60 E9 F1000 ; intro line
G1 X100 E12.5 F1000 ; intro line
G92 E0
M221 S95

; Don't change E values below. Excessive value can damage the printer.

M907 E538 ; set extruder motor current
G21 ; set units to millimeters
G90 ; use absolute coordinates
M83 ; use relative distances for extrusion
M900 K0.05 ; Filament gcode LA 1.5
M900 K30 ; Filament gcode LA 1.0
M107
;LAYER_CHANGE
;Z:0.2
;HEIGHT:0.2
;BEFORE_LAYER_CHANGE
G92 E0.0
;0.2


G1 E-.8 F2100
G1 Z.4 F720
;AFTER_LAYER_CHANGE
;0.2
G1 X106.139 Y88.583 F10800
G1 Z.2 F720
G1 E.8 F2100
M204 S800
;TYPE:Skirt/Brim
;WIDTH:0.42
G1 F1200
G1 X107.205 Y87.569 E.04612
G1 X108.5 Y87.246 E.04186
G1 X123.5 Y87.246 E.47031
G1 X125.264 Y87.885 E.05882
G1 X143.258 Y102.891 E.73463
G1 X144.095 Y104.1 E.04612
M73 Q1 S15
G1 X144.248 Y105.006 E.0288
G1 X144.248 Y119.994 E.46993
G1 X143.855 Y121.411 E.04612
M73 P1 R15
G1 X142.789 Y122.425 E.04612
G1 X141.494 Y122.748 E.04186
G1 X126.506 Y122.748 E.46993
G1 X124.744 Y122.11 E.05876
G1 X106.738 Y107.116 E.73468
G1 X105.9 Y105.908 E.04612
G1 X105.746 Y105 E.02886
G1 X105.746 Y90 E.47031
G1 X106.123 Y88.64 E.04424
M204 S1000
G1 X106.497 Y88.752 F10800
M204 S800
G1 F1200
G1 X106.515 Y88.693 E.00195
G1 X107.56 Y87.817 E.04278
G1 X108.5 Y87.623 E.03008
G1 X123.5 Y87.623 E.47031
G1 X125.022 Y88.174 E.05077
G1 X143.016 Y103.181 E.73463
G1 X143.769 Y104.318 E.04278
G1 X143.871 Y105.006 E.0218
G1 X143.871 Y119.994 E.46993
G1 X143.479 Y121.301 E.04278
G1 X142.434 Y122.177 E.04278
G1 X141.494 Y122.371 E.03008
G1 X126.506 Y122.371 E.46993
G1 X124.985 Y121.821 E.05072
G1 X106.979 Y106.827 E.73468
G1 X106.225 Y105.689 E.04278
G1 X106.123 Y105 E.02185
M73 Q2 S15
G1 X106.123 Y90 E.47031
G1 X106.479 Y88.81 E.03895
M204 S1000
; printing object 3D Print Assignment v4.stl id:0 copy 0
;WIPE_START
M73 P2 R15
G1 F8640
G1 X106.515 Y88.693 E-.0282
G1 X107.56 Y87.817 E-.31505
G1 X108.5 Y87.623 E-.22155
G1 X109.345 Y87.623 E-.1952
;WIPE_END
G1 E-.04 F2100
G1 Z.6 F720
G1 X127.293 Y105.793 F10800
G1 Z.2 F720
G1 E.8 F2100
M204 S800
;TYPE:Perimeter
G1 F1200
G1 X140.707 Y105.793 E.42058
G1 X140.707 Y119.207 E.42058
G1 X127.293 Y119.207 E.42058
G1 X127.293 Y105.853 E.41869
M204 S1000
G1 X126.916 Y105.416 F10800
M204 S800
;TYPE:External perimeter
G1 F1200
G1 X141.084 Y105.416 E.44422
G1 X141.084 Y119.584 E.44422
G1 X126.916 Y119.584 E.44422
G1 X126.916 Y105.476 E.44234
M204 S1000
G1 X127.302 Y105.52 F10800
;WIPE_START
G1 F8640
G1 X130.207 Y105.462 E-.76
;WIPE_END
G1 E-.04 F2100
G1 Z.6 F720
G1 X140.594 Y106.678 F10800
G1 Z.2 F720
G1 E.8 F2100
M204 S800
;TYPE:Solid infill
;WIDTH:0.424618
G1 F1200
G1 X139.991 Y106.076 E.02704
G1 X139.452 Y106.076 E.01713
G1 X140.424 Y107.048 E.04365
G1 X140.424 Y107.588 E.01713
G1 X138.912 Y106.076 E.06788
G1 X138.372 Y106.076 E.01713
G1 X140.424 Y108.128 E.09211
G1 X140.424 Y108.668 E.01713
G1 X137.832 Y106.076 E.11634
G1 X137.292 Y106.076 E.01713
G1 X140.424 Y109.208 E.14057
G1 X140.424 Y109.747 E.01713
G1 X136.753 Y106.076 E.16479
G1 X136.213 Y106.076 E.01713
G1 X140.424 Y110.287 E.18902
G1 X140.424 Y110.827 E.01713
G1 X135.673 Y106.076 E.21325
G1 X135.133 Y106.076 E.01713
M73 Q3 S15
G1 X140.424 Y111.367 E.23748
G1 X140.424 Y111.907 E.01713
M73 P3 R15
G1 X134.593 Y106.076 E.26171
G1 X134.054 Y106.076 E.01713
G1 X140.424 Y112.446 E.28594
G1 X140.424 Y112.986 E.01713
G1 X133.514 Y106.076 E.31017
G1 X132.974 Y106.076 E.01713
G1 X140.424 Y113.526 E.3344
G1 X140.424 Y114.066 E.01713
G1 X132.434 Y106.076 E.35862
G1 X131.894 Y106.076 E.01713
G1 X140.424 Y114.606 E.38285
G1 X140.424 Y115.145 E.01713
G1 X131.355 Y106.076 E.40708
G1 X130.815 Y106.076 E.01713
G1 X140.424 Y115.685 E.43131
G1 X140.424 Y116.225 E.01713
G1 X130.275 Y106.076 E.45554
G1 X129.735 Y106.076 E.01713
G1 X140.424 Y116.765 E.47977
G1 X140.424 Y117.305 E.01713
G1 X129.195 Y106.076 E.504
G1 X128.656 Y106.076 E.01713
G1 X140.424 Y117.845 E.52823
G1 X140.424 Y118.384 E.01713
G1 X128.116 Y106.076 E.55245
G1 X127.576 Y106.076 E.01713
M73 Q4 S15
G1 X140.424 Y118.924 E.57668
G1 X139.884 Y118.924 E.01713
M73 P4 R15
G1 X127.576 Y106.616 E.55245
G1 X127.576 Y107.156 E.01713
G1 X139.344 Y118.924 E.52822
G1 X138.805 Y118.924 E.01713
G1 X127.576 Y107.695 E.50399
G1 X127.576 Y108.235 E.01713
G1 X138.265 Y118.924 E.47977
G1 X137.725 Y118.924 E.01713
G1 X127.576 Y108.775 E.45554
G1 X127.576 Y109.315 E.01713
G1 X137.185 Y118.924 E.43131
G1 X136.645 Y118.924 E.01713
M73 P4 R14
G1 X127.576 Y109.855 E.40708
G1 X127.576 Y110.394 E.01713
G1 X136.106 Y118.924 E.38285
G1 X135.566 Y118.924 E.01713
M73 Q4 S14
G1 X127.576 Y110.934 E.35862
G1 X127.576 Y111.474 E.01713
G1 X135.026 Y118.924 E.33439
G1 X134.486 Y118.924 E.01713
G1 X127.576 Y112.014 E.31016
G1 X127.576 Y112.554 E.01713
G1 X133.946 Y118.924 E.28593
G1 X133.407 Y118.924 E.01713
G1 X127.576 Y113.093 E.26171
G1 X127.576 Y113.633 E.01713
M73 P5 R14
M73 Q5 S14
G1 X132.867 Y118.924 E.23748
G1 X132.327 Y118.924 E.01713
G1 X127.576 Y114.173 E.21325
G1 X127.576 Y114.713 E.01713
G1 X131.787 Y118.924 E.18902
G1 X131.247 Y118.924 E.01713
G1 X127.576 Y115.253 E.16479
G1 X127.576 Y115.792 E.01713
G1 X130.708 Y118.924 E.14056
G1 X130.168 Y118.924 E.01713
G1 X127.576 Y116.332 E.11633
G1 X127.576 Y116.872 E.01713
G1 X129.628 Y118.924 E.0921
G1 X129.088 Y118.924 E.01713
G1 X127.576 Y117.412 E.06787
G1 X127.576 Y117.952 E.01713
G1 X128.548 Y118.924 E.04365
G1 X128.009 Y118.924 E.01713
G1 X127.406 Y118.322 E.02703
M204 S1000
;WIPE_START
G1 F8640
G1 X128.009 Y118.924 E-.19667
G1 X128.548 Y118.924 E-.12464
G1 X127.576 Y117.952 E-.31753
G1 X127.576 Y117.427 E-.12116
;WIPE_END
G1 E-.04 F2100
G1 Z.6 F720
G1 X119.937 Y101.437 F10800
G1 Z.2 F720
G1 E.8 F2100
M204 S800
;TYPE:Perimeter
;WIDTH:0.42
G1 F1200
G1 X112.063 Y101.437 E.24689
G1 X112.063 Y93.563 E.24689
G1 X119.937 Y93.563 E.24689
G1 X119.937 Y101.377 E.24501
M204 S1000
G1 X119.56 Y101.06 F10800
M204 S800
;TYPE:External perimeter
G1 F1200
G1 X112.44 Y101.06 E.22324
G1 X112.44 Y93.94 E.22324
G1 X119.56 Y93.94 E.22324
G1 X119.56 Y101 E.22136
M204 S1000
G1 X119.664 Y101.446 F10800
;WIPE_START
G1 F8640
G1 X116.269 Y101.028 E-.76
;WIPE_END
G1 E-.04 F2100
G1 Z.6 F720
G1 X122.713 Y104.213 F10800
G1 Z.2 F720
G1 E.8 F2100
M204 S800
;TYPE:Perimeter
G1 F1200
G1 X109.287 Y104.213 E.42096
G1 X109.287 Y90.787 E.42096
G1 X122.713 Y90.787 E.42096
G1 X122.713 Y104.153 E.41908
M204 S1000
G1 X123.09 Y104.59 F10800
M204 S800
;TYPE:External perimeter
M73 P6 R14
M73 Q6 S14
G1 F1200
G1 X108.91 Y104.59 E.4446
G1 X108.91 Y90.41 E.4446
G1 X123.09 Y90.41 E.4446
G1 X123.09 Y104.53 E.44272
M204 S1000
G1 X122.704 Y104.486 F10800
;WIPE_START
G1 F8640
G1 X119.799 Y104.544 E-.76
;WIPE_END
G1 E-.04 F2100
G1 Z.6 F720
G1 X121.827 Y90.9 F10800
G1 Z.2 F720
G1 E.8 F2100
M204 S800
;TYPE:Solid infill
;WIDTH:0.424969
G1 F1200
G1 X122.43 Y91.503 E.0271
G1 X122.43 Y92.044 E.01716
G1 X121.456 Y91.07 E.04375
G1 X120.916 Y91.07 E.01716
G1 X122.43 Y92.584 E.06802
G1 X122.43 Y93.124 E.01716
G1 X120.376 Y91.07 E.09229
G1 X119.835 Y91.07 E.01716
G1 X122.43 Y93.665 E.11657
G1 X122.43 Y94.205 E.01716
G1 X119.295 Y91.07 E.14084
G1 X118.755 Y91.07 E.01716
G1 X122.43 Y94.745 E.16511
G1 X122.43 Y95.285 E.01716
G1 X118.215 Y91.07 E.18939
G1 X117.674 Y91.07 E.01716
G1 X122.43 Y95.826 E.21366
G1 X122.43 Y96.366 E.01716
G1 X120.22 Y94.156 E.0993
G1 X120.22 Y94.696 E.01716
G1 X122.43 Y96.906 E.0993
G1 X122.43 Y97.447 E.01716
G1 X120.22 Y95.236 E.0993
G1 X120.22 Y95.777 E.01716
G1 X122.43 Y97.987 E.0993
G1 X122.43 Y98.527 E.01716
G1 X120.22 Y96.317 E.0993
G1 X120.22 Y96.857 E.01716
G1 X122.43 Y99.067 E.0993
G1 X122.43 Y99.608 E.01716
G1 X120.22 Y97.398 E.0993
G1 X120.22 Y97.938 E.01716
G1 X122.43 Y100.148 E.0993
G1 X122.43 Y100.688 E.01716
G1 X120.22 Y98.478 E.0993
G1 X120.22 Y99.018 E.01716
G1 X122.43 Y101.229 E.0993
G1 X122.43 Y101.769 E.01716
G1 X120.22 Y99.559 E.0993
G1 X120.22 Y100.099 E.01716
G1 X122.43 Y102.309 E.0993
G1 X122.43 Y102.85 E.01716
G1 X120.22 Y100.639 E.0993
G1 X120.22 Y101.18 E.01716
G1 X122.43 Y103.39 E.0993
G1 X122.43 Y103.93 E.01716
G1 X120.22 Y101.72 E.0993
G1 X119.68 Y101.72 E.01716
G1 X121.89 Y103.93 E.0993
G1 X121.349 Y103.93 E.01716
G1 X119.139 Y101.72 E.0993
G1 X118.599 Y101.72 E.01716
G1 X120.809 Y103.93 E.0993
G1 X120.269 Y103.93 E.01716
G1 X118.059 Y101.72 E.0993
G1 X117.518 Y101.72 E.01716
M73 Q7 S14
G1 X119.729 Y103.93 E.0993
G1 X119.188 Y103.93 E.01716
G1 X116.978 Y101.72 E.0993
M73 P7 R14
G1 X116.438 Y101.72 E.01716
G1 X118.648 Y103.93 E.0993
G1 X118.108 Y103.93 E.01716
G1 X115.897 Y101.72 E.0993
G1 X115.357 Y101.72 E.01716
G1 X117.567 Y103.93 E.0993
G1 X117.027 Y103.93 E.01716
G1 X114.817 Y101.72 E.0993
G1 X114.277 Y101.72 E.01716
G1 X116.487 Y103.93 E.0993
G1 X115.946 Y103.93 E.01716
G1 X113.736 Y101.72 E.0993
G1 X113.196 Y101.72 E.01716
G1 X115.406 Y103.93 E.0993
G1 X114.866 Y103.93 E.01716
G1 X112.486 Y101.55 E.10692
M204 S1000
;WIPE_START
G1 F8640
G1 X114.813 Y103.878 E-.76
;WIPE_END
G1 E-.04 F2100
G1 Z.6 F720
G1 X119.514 Y93.45 F10800
G1 Z.2 F720
G1 E.8 F2100
M204 S800
G1 F1200
G1 X117.134 Y91.07 E.10692
G1 X116.594 Y91.07 E.01716
G1 X118.804 Y93.28 E.0993
G1 X118.264 Y93.28 E.01716
G1 X116.053 Y91.07 E.0993
G1 X115.513 Y91.07 E.01716
G1 X117.723 Y93.28 E.0993
G1 X117.183 Y93.28 E.01716
G1 X114.973 Y91.07 E.0993
G1 X114.433 Y91.07 E.01716
G1 X116.643 Y93.28 E.0993
G1 X116.102 Y93.28 E.01716
G1 X113.892 Y91.07 E.0993
G1 X113.352 Y91.07 E.01716
G1 X115.562 Y93.28 E.0993
G1 X115.022 Y93.28 E.01716
G1 X112.812 Y91.07 E.0993
G1 X112.271 Y91.07 E.01716
G1 X114.482 Y93.28 E.0993
G1 X113.941 Y93.28 E.01716
G1 X111.731 Y91.07 E.0993
G1 X111.191 Y91.07 E.01716
G1 X113.401 Y93.28 E.0993
G1 X112.861 Y93.28 E.01716
G1 X110.65 Y91.07 E.0993
G1 X110.11 Y91.07 E.01716
G1 X112.32 Y93.28 E.0993
G1 X111.78 Y93.28 E.01716
G1 X109.57 Y91.07 E.0993
G1 X109.57 Y91.61 E.01716
G1 X111.78 Y93.82 E.0993
G1 X111.78 Y94.361 E.01716
G1 X109.57 Y92.151 E.0993
G1 X109.57 Y92.691 E.01716
G1 X111.78 Y94.901 E.0993
G1 X111.78 Y95.441 E.01716
G1 X109.57 Y93.231 E.0993
G1 X109.57 Y93.771 E.01716
G1 X111.78 Y95.982 E.0993
G1 X111.78 Y96.522 E.01716
G1 X109.57 Y94.312 E.0993
G1 X109.57 Y94.852 E.01716
G1 X111.78 Y97.062 E.0993
G1 X111.78 Y97.603 E.01716
G1 X109.57 Y95.392 E.0993
G1 X109.57 Y95.933 E.01716
G1 X111.78 Y98.143 E.0993
G1 X111.78 Y98.683 E.01716
G1 X109.57 Y96.473 E.0993
G1 X109.57 Y97.013 E.01716
G1 X111.78 Y99.223 E.0993
G1 X111.78 Y99.764 E.01716
G1 X109.57 Y97.554 E.0993
G1 X109.57 Y98.094 E.01716
G1 X111.78 Y100.304 E.0993
G1 X111.78 Y100.844 E.01716
G1 X109.57 Y98.634 E.0993
G1 X109.57 Y99.174 E.01716
G1 X114.326 Y103.93 E.21366
G1 X113.785 Y103.93 E.01716
G1 X109.57 Y99.715 E.18938
G1 X109.57 Y100.255 E.01716
G1 X113.245 Y103.93 E.16511
G1 X112.705 Y103.93 E.01716
G1 X109.57 Y100.795 E.14084
G1 X109.57 Y101.336 E.01716
M73 Q8 S14
G1 X112.164 Y103.93 E.11656
G1 X111.624 Y103.93 E.01716
M73 P8 R14
G1 X109.57 Y101.876 E.09229
G1 X109.57 Y102.416 E.01716
G1 X111.084 Y103.93 E.06802
G1 X110.544 Y103.93 E.01716
G1 X109.57 Y102.956 E.04374
G1 X109.57 Y103.497 E.01716
G1 X110.173 Y104.1 E.02709
M204 S1000
; stop printing object 3D Print Assignment v4.stl id:0 copy 0
M106 S84.15
;LAYER_CHANGE
;Z:0.5
;HEIGHT:0.3
;BEFORE_LAYER_CHANGE
G92 E0.0
;0.5


;WIPE_START
G1 F8640
G1 X109.57 Y103.497 E-.19692
G1 X109.57 Y102.956 E-.12476
G1 X110.544 Y103.93 E-.31794
G1 X111.065 Y103.93 E-.12039
;WIPE_END
G1 E-.04 F2100
G1 Z.6 F720
;AFTER_LAYER_CHANGE
;0.5
G1 X107.726 Y107.94 F10800
G1 Z.5 F720
G1 E.8 F2100
;TYPE:Skirt/Brim
;WIDTH:0.42
G1 F2700
G1 X106.738 Y107.116 E.05706
G1 X105.9 Y105.908 E.06524
G1 X105.746 Y105 E.04083
G1 X105.746 Y90 E.66532
G1 X106.139 Y88.583 E.06524
G1 X107.205 Y87.569 E.06524
G1 X108.5 Y87.246 E.05921
G1 X123.5 Y87.246 E.66532
G1 X125.264 Y87.885 E.08321
G1 X143.258 Y102.891 E1.03923
G1 X144.095 Y104.1 E.06524
G1 X144.248 Y105.006 E.04074
G1 X144.248 Y119.994 E.66478
G1 X143.855 Y121.411 E.06524
G1 X142.789 Y122.425 E.06524
G1 X141.494 Y122.748 E.05921
G1 X126.506 Y122.748 E.66478
G1 X124.744 Y122.11 E.08313
G1 X107.772 Y107.978 E.97958
G1 X108.014 Y107.688 F10800
G1 F2700
G1 X106.979 Y106.827 E.05972
G1 X106.225 Y105.689 E.06052
G1 X106.123 Y105 E.03091
G1 X106.123 Y90 E.66532
G1 X106.515 Y88.693 E.06052
G1 X107.56 Y87.817 E.06052
G1 X108.5 Y87.623 E.04256
G1 X123.5 Y87.623 E.66532
G1 X125.022 Y88.174 E.07182
G1 X143.016 Y103.181 E1.03923
G1 X143.769 Y104.318 E.06052
G1 X143.871 Y105.006 E.03084
G1 X143.871 Y119.994 E.66478
G1 X143.479 Y121.301 E.06052
G1 X142.434 Y122.177 E.06052
G1 X141.494 Y122.371 E.04256
G1 X126.506 Y122.371 E.66478
G1 X124.985 Y121.821 E.07175
G1 X108.06 Y107.727 E.97692
; printing object 3D Print Assignment v4.stl id:0 copy 0
;WIPE_START
G1 F8640
G1 X106.979 Y106.827 E-.32474
G1 X106.225 Y105.689 E-.31505
G1 X106.149 Y105.174 E-.12021
;WIPE_END
G1 E-.04 F2100
G1 Z.9 F720
G1 X112.064 Y101.436 F10800
G1 Z.5 F720
G1 E.8 F2100
M204 S800
;TYPE:Perimeter
;WIDTH:0.5
G1 F1800
G1 X112.064 Y93.564 E.42767
G1 X119.936 Y93.564 E.42767
G1 X119.936 Y101.436 E.42767
G1 X112.124 Y101.436 E.42441
M204 S1000
G1 X112.55 Y100.95 F10800
M204 S800
;TYPE:External perimeter
;WIDTH:0.6
G1 F1800
G1 X112.55 Y94.05 E.46096
G1 X119.45 Y94.05 E.46096
G1 X119.45 Y100.95 E.46096
G1 X112.61 Y100.95 E.45695
M204 S1000
M73 Q9 S14
G1 X112.164 Y101.054 F10800
;WIPE_START
M73 P9 R14
G1 F8640
G1 X112.581 Y97.659 E-.76
;WIPE_END
G1 E-.04 F2100
G1 Z.9 F720
G1 X109.286 Y104.214 F10800
G1 Z.5 F720
G1 E.8 F2100
M204 S800
;TYPE:Perimeter
;WIDTH:0.5
G1 F3000
G1 X109.286 Y90.786 E.72962
G1 X122.714 Y90.786 E.72962
G1 X122.714 Y104.214 E.72962
G1 X109.346 Y104.214 E.72636
M204 S1000
G1 X108.8 Y104.7 F10800
M204 S800
;TYPE:External perimeter
;WIDTH:0.6
G1 F2100
G1 X108.8 Y90.3 E.962
G1 X123.2 Y90.3 E.962
G1 X123.2 Y104.7 E.962
G1 X108.86 Y104.7 E.95799
M204 S1000
G1 X108.904 Y104.314 F10800
;WIPE_START
G1 F8640
G1 X108.846 Y101.409 E-.76
;WIPE_END
G1 E-.04 F2100
G1 Z.9 F720
G1 X122.584 Y103.184 F10800
G1 Z.5 F720
G1 E.8 F2100
;TYPE:Solid infill
;WIDTH:0.509217
G1 F4800
G1 X121.88 Y103.888 E.05525
G1 X121.25 Y103.888 E.0349
G1 X122.388 Y102.75 E.08923
G1 X122.388 Y102.121 E.0349
G1 X120.621 Y103.888 E.13859
G1 X119.992 Y103.888 E.0349
G1 X122.388 Y101.492 E.18795
G1 X122.388 Y100.863 E.0349
G1 X119.363 Y103.888 E.23731
G1 X118.734 Y103.888 E.0349
G1 X122.388 Y100.234 E.28667
G1 X122.388 Y99.605 E.0349
G1 X118.105 Y103.888 E.33603
G1 X117.476 Y103.888 E.0349
G1 X119.601 Y101.762 E.16676
G1 X118.972 Y101.762 E.0349
G1 X116.847 Y103.888 E.16676
G1 X116.218 Y103.888 E.0349
G1 X118.343 Y101.762 E.16676
G1 X117.714 Y101.762 E.0349
G1 X115.589 Y103.888 E.16676
G1 X114.96 Y103.888 E.0349
G1 X117.085 Y101.762 E.16676
G1 X116.456 Y101.762 E.0349
G1 X114.33 Y103.888 E.16676
G1 X113.701 Y103.888 E.0349
G1 X115.827 Y101.762 E.16676
G1 X115.198 Y101.762 E.0349
G1 X113.072 Y103.888 E.16676
G1 X112.443 Y103.888 E.0349
G1 X114.569 Y101.762 E.16676
G1 X113.939 Y101.762 E.0349
G1 X111.814 Y103.888 E.16676
G1 X111.185 Y103.888 E.0349
G1 X113.31 Y101.762 E.16676
